www/assets/icons/text_format.svg

<svg xmlns="http://www.w3.org/2000/svg" width="24" height="24" viewBox="0 0 24 24" fill='currentColor'><path d="M5 17.5v2h14v-2zm4.5-4.2h5l.9 2.2h2.1l-4.75-11h-1.5l-4.75 11h2.1zM12 6.48l1.87 5.02h-3.74z"/></svg>

<svg width="24" height="24" viewBox="0 0 24 24" xmlns="http://www.w3.org/2000/svg" fill='currentColor'><path d="M5 17.5V19.5H19V17.5H5ZM9.5 13.3H14.5L15.4 15.5H17.5L12.75 4.5H11.25L6.5 15.5H8.6L9.5 13.3ZM12 6.48L13.87 11.5H10.13L12 6.48Z"/></svg>
